X: 5
T: The Ships In Full Sail
R: jig
M: 6/8
L: 1/8
K: Gmaj
|:d3 dBG | e3 efg | d3 dBG | A3 ABc || d3 dBG | e3 efg | dBG {B}AGA | BGG G3 :|


Tune 261	Setting 25691

